X: 1
T: Schottische à Virmoux
C: Trad
R: Schottische
M: 4/4
L: 1/8
K: Dmaj
Z: ABC transcription by Verge Roller
r: 32
|: "D" DAGF A3 F | "G" GFGA B2 A2 | "D" AdAF "A" G2 FE | "D" FAFD "A" E4 |
"D" DAGF A3 F | "G" GFGA B2 A2 | "D" AdAF "A" G2 FE | "D" DA"A"GA "D" D3 z :|
|: "D" d2 A2 d3 c | "G" BABc dedB | "D" A2 D2 A2 GF | "G" EFGA "A" BABc |
"D" d2 A2 d3 c | "G" BABc dedB | "D" A2 D2 A2 GF | "A" EFGA "D" D4:|
